!!!COM: Ulenberg, Caspar
!!!CDT: 1548/12/24-1617/02/16
!!!OPR: Die Psalmen Davids
!!!ONM: 48
!!!ONM-carmgen: 40
!!!OTL@@LA: Audite hæc omnes gentes
!!!OTL-incipit@@DE: Hört diß jhr völcker in gemein
**kern	**text
*Ivox	*
*clefC3	*
*k[]	*
*M2/1	*
*met(C|)	*
*MM180	*
=-	=-
*xywh-#249:101,990,681,415	*
1c	Hört
2c	diß
2c	ihr
=-	=-
2e	völ-
2d	-cker
2e	ins
2f	ge-
=-	=-
1g	-mein/
1r	.
=-	=-
*xywh-#250:225,170,713,295	*
1g	Und
2g	nei-
2g	-get
=-	=-
2e	ew-
2d	-er
1f	o-
=-	=-
1e	-ren
1d	fein/
=-	=-
1r	.
*xywh-#250:232,464,703,246	*
*lig	*
1f	Zů-
=-	=-
1e	.
*Xlig	*
2d	-mer-
2c	-cken
=-	=-
2d	auff
2B	die
2A	re-
2G	-de
=-	=-
1F	mein/
1r	.
=-	=-
*xywh-#250:234,706,703,225	*
1G	All
2A	die
2B	ihr
=-	=-
2c	wo-
2c	-net
2d	hie
2e	auff
=-	=-
1d	er-
1c	-den/
=-	=-
*xywh-#250:234,927,704,240	*
1r	.
1c	So
=-	=-
2e	wol
2e	ihr
2d	leut
2g	von
=-	=-
2f	ni-
2e	-derm
=-	=-
1d	stand/
*xywh-#250:236,1167,701,268	*
1r	.
=-	=-
1e	Als
2f	gros-
2f	-se
=-	=-
2f	her-
2e	-ren
2d	hoch-
2c	-ge-
=-	=-
1B	-nant/
*xywh-#251:89,142,684,294	*
1r	.
=-	=-
1G	Auch
2A	reich
2A	und
=-	=-
2B	ar-
2G	-men
1A	glei-
=-	=-
1B	-cher
1c	hand/
=-	=-
1r	.
*xywh-#251:88,437,684,227	*
1c	Wie
=-	=-
1d	ihr
1e	auch
=-	=-
2f	mögt
2e	ge-
2d	-nen-
2c	-net
=-	=-
1d	wer-
1cll;	-den.
==	==
*-	*-
!!!RDF**kern: l = terminal long
!!!RDF**kern: i = editorial accidental
!!!AGN: Psalm
!!!YOR: https://mdz-nbn-resolving.de/details:bsb11116252
!!!YOO: München, Bayerische Staatsbibliothek
!!!URL-scan: https://www.digitale-sammlungen.de/de/view/bsb11116252?page=249
!!!IIIF: https://api.digitale-sammlungen.de/iiif/presentation/v2/bsb11116252/manifest
!!!EED: Wolfgang Drescher
!!!END: 2023/04/05
!!!ENC: Wolfgang Drescher
!!!EEV: 2023/04/05
!!!title: @{ONM}. @{OTL} / <i>@{OTL-incipit@@DE}</i>